_includes/icons/color-beer.svg

<svg fill="#666" height="50" viewBox="0 0 48 48" width="50" xmlns="http://www.w3.org/2000/svg"><g fill="#ffecb3"><path d="m21 10c0 3.3125-2.6875 6-6 6s-6-2.6875-6-6 2.6875-6 6-6 6 2.6875 6 6z"/><path d="m28 8.5c0 3.039063-2.460937 5.5-5.5 5.5-3.039062 0-5.5-2.460937-5.5-5.5 0-3.039062 2.460938-5.5 5.5-5.5 3.039063 0 5.5 2.460938 5.5 5.5z"/><path d="m33 9.5c0 1.933594-1.566406 3.5-3.5 3.5s-3.5-1.566406-3.5-3.5 1.566406-3.5 3.5-3.5 3.5 1.566406 3.5 3.5z"/><path d="m30 13.5c0 1.933594-1.566406 3.5-3.5 3.5s-3.5-1.566406-3.5-3.5 1.566406-3.5 3.5-3.5 3.5 1.566406 3.5 3.5z"/><path d="m11 10.5c0 1.378906-1.121094 2.5-2.5 2.5s-2.5-1.121094-2.5-2.5 1.121094-2.5 2.5-2.5 2.5 1.121094 2.5 2.5z"/><path d="m35 10.5c0 1.378906-1.121094 2.5-2.5 2.5s-2.5-1.121094-2.5-2.5 1.121094-2.5 2.5-2.5 2.5 1.121094 2.5 2.5z"/></g><path d="m32.511719 39c-3.035156 0-5.5-2.46875-5.5-5.5v-11c0-.289062-.003906-.519531-.007813-.695312-.011718-.632813-.019531-1.179688.464844-1.671875l.441406-.449219.660157-.011719c.414062 0 .710937.15625.867187.242188.007813.007812.015625.007812.023438.011718 1.402343-.832031 5.214843-2.925781 8.050781-2.925781 4.5 0 4.5 3.441406 4.5 5.5-.058594 1-.523438 9.109375-1.039063 11.335938-.75 3.234375-2.789062 5.164062-5.460937 5.164062zm-2.5-16v10.5c0 1.378906 1.121094 2.5 2.5 2.5h2.996094c1.640625 0 2.296875-1.777344 2.542968-2.839844.386719-1.675781.824219-8.324218.960938-10.746093 0-2.414063-.117188-2.414063-1.5-2.414063-2.097656 0-5.8125 2.050781-6.949219 2.769531l-.371094.230469z" fill="#bbdefb"/><path d="m8 40v2c0 1.105469.894531 2 2 2h21c1.105469 0 2-.894531 2-2v-2z" fill="#bbdefb"/><path d="m8 12h25v28h-25z" fill="#ffb300"/><path d="m8 12h25v8h-25z" fill="#ffd54f"/><path d="m26 27.5c0 .828125-.671875 1.5-1.5 1.5s-1.5-.671875-1.5-1.5.671875-1.5 1.5-1.5 1.5.671875 1.5 1.5z" fill="#ffecb3"/><path d="m28 33.5c0 .828125-.671875 1.5-1.5 1.5s-1.5-.671875-1.5-1.5.671875-1.5 1.5-1.5 1.5.671875 1.5 1.5z" fill="#ffe082"/><path d="m30 25c0 .550781-.449219 1-1 1s-1-.449219-1-1 .449219-1 1-1 1 .449219 1 1z" fill="#fff8e1"/><g fill="#fffdf0"><path d="m14.394531 19.542969c.558594-2.894531.558594-6.046875-2.0625-7.542969 1.667969-2 6.667969-2 8.355469 0-2.90625 1.660156-2.589844 5.363281-1.863281 8.488281.585937 1.628907.949219 3.09375 1.09375 4.027344.003906.011719.003906.023438.007812.035156.039063.269532.066407.511719.066407.675782 0 1.921875-1.558594 3.480468-3.480469 3.480468s-3.480469-1.558593-3.480469-3.480468c0-.148438.023438-.359375.058594-.597657.136719-1.128906.632812-2.828125 1.304687-5.085937z"/><path d="m21.898438 12c-.460938-2.28125-2.480469-4-4.898438-4s-4.4375 1.71875-4.898437 4z"/><path d="m25.949219 12c.03125-.160156.050781-.328125.050781-.5 0-1.382812-1.117187-2.5-2.5-2.5-1.382812 0-2.5 1.117188-2.5 2.5 0 .171875.019531.339844.050781.5z"/></g></svg>

<svg xmlns="http://www.w3.org/2000/svg" viewBox="0 0 48 48" width="50" height="50" fill="#666"><path d="M 21 10 C 21 13.3125 18.3125 16 15 16 C 11.6875 16 9 13.3125 9 10 C 9 6.6875 11.6875 4 15 4 C 18.3125 4 21 6.6875 21 10 Z" fill="#ffecb3"/><path d="M 28 8.5 C 28 11.539063 25.539063 14 22.5 14 C 19.460938 14 17 11.539063 17 8.5 C 17 5.460938 19.460938 3 22.5 3 C 25.539063 3 28 5.460938 28 8.5 Z" fill="#ffecb3"/><path d="M 33 9.5 C 33 11.433594 31.433594 13 29.5 13 C 27.566406 13 26 11.433594 26 9.5 C 26 7.566406 27.566406 6 29.5 6 C 31.433594 6 33 7.566406 33 9.5 Z" fill="#ffecb3"/><path d="M 30 13.5 C 30 15.433594 28.433594 17 26.5 17 C 24.566406 17 23 15.433594 23 13.5 C 23 11.566406 24.566406 10 26.5 10 C 28.433594 10 30 11.566406 30 13.5 Z" fill="#ffecb3"/><path d="M 11 10.5 C 11 11.878906 9.878906 13 8.5 13 C 7.121094 13 6 11.878906 6 10.5 C 6 9.121094 7.121094 8 8.5 8 C 9.878906 8 11 9.121094 11 10.5 Z" fill="#ffecb3"/><path d="M 35 10.5 C 35 11.878906 33.878906 13 32.5 13 C 31.121094 13 30 11.878906 30 10.5 C 30 9.121094 31.121094 8 32.5 8 C 33.878906 8 35 9.121094 35 10.5 Z" fill="#ffecb3"/><path d="M 32.511719 39 C 29.476563 39 27.011719 36.53125 27.011719 33.5 L 27.011719 22.5 C 27.011719 22.210938 27.007813 21.980469 27.003906 21.804688 C 26.992188 21.171875 26.984375 20.625 27.46875 20.132813 L 27.910156 19.683594 L 28.570313 19.671875 C 28.984375 19.671875 29.28125 19.828125 29.4375 19.914063 C 29.445313 19.921875 29.453125 19.921875 29.460938 19.925781 C 30.863281 19.09375 34.675781 17 37.511719 17 C 42.011719 17 42.011719 20.441406 42.011719 22.5 C 41.953125 23.5 41.488281 31.609375 40.972656 33.835938 C 40.222656 37.070313 38.183594 39 35.511719 39 Z M 30.011719 23 L 30.011719 33.5 C 30.011719 34.878906 31.132813 36 32.511719 36 L 35.507813 36 C 37.148438 36 37.804688 34.222656 38.050781 33.160156 C 38.4375 31.484375 38.875 24.835938 39.011719 22.414063 C 39.011719 20 38.894531 20 37.511719 20 C 35.414063 20 31.699219 22.050781 30.5625 22.769531 L 30.191406 23 Z" fill="#bbdefb"/><path d="M 8 40 L 8 42 C 8 43.105469 8.894531 44 10 44 L 31 44 C 32.105469 44 33 43.105469 33 42 L 33 40 Z" fill="#bbdefb"/><path d="M 8 12 L 33 12 L 33 40 L 8 40 Z" fill="#ffb300"/><path d="M 8 12 L 33 12 L 33 20 L 8 20 Z" fill="#ffd54f"/><path d="M 26 27.5 C 26 28.328125 25.328125 29 24.5 29 C 23.671875 29 23 28.328125 23 27.5 C 23 26.671875 23.671875 26 24.5 26 C 25.328125 26 26 26.671875 26 27.5 Z" fill="#ffecb3"/><path d="M 28 33.5 C 28 34.328125 27.328125 35 26.5 35 C 25.671875 35 25 34.328125 25 33.5 C 25 32.671875 25.671875 32 26.5 32 C 27.328125 32 28 32.671875 28 33.5 Z" fill="#ffe082"/><path d="M 30 25 C 30 25.550781 29.550781 26 29 26 C 28.449219 26 28 25.550781 28 25 C 28 24.449219 28.449219 24 29 24 C 29.550781 24 30 24.449219 30 25 Z" fill="#fff8e1"/><path d="M 14.394531 19.542969 C 14.953125 16.648438 14.953125 13.496094 12.332031 12 C 14 10 19 10 20.6875 12 C 17.78125 13.660156 18.097656 17.363281 18.824219 20.488281 C 19.410156 22.117188 19.773438 23.582031 19.917969 24.515625 C 19.921875 24.527344 19.921875 24.539063 19.925781 24.550781 C 19.964844 24.820313 19.992188 25.0625 19.992188 25.226563 C 19.992188 27.148438 18.433594 28.707031 16.511719 28.707031 C 14.589844 28.707031 13.03125 27.148438 13.03125 25.226563 C 13.03125 25.078125 13.054688 24.867188 13.089844 24.628906 C 13.226563 23.5 13.722656 21.800781 14.394531 19.542969 Z" fill="#fffdf0"/><path d="M 21.898438 12 C 21.4375 9.71875 19.417969 8 17 8 C 14.582031 8 12.5625 9.71875 12.101563 12 Z" fill="#fffdf0"/><path d="M 25.949219 12 C 25.980469 11.839844 26 11.671875 26 11.5 C 26 10.117188 24.882813 9 23.5 9 C 22.117188 9 21 10.117188 21 11.5 C 21 11.671875 21.019531 11.839844 21.050781 12 Z" fill="#fffdf0"/></svg>
